X:620
T:Roaring Barmaid, The
R:jig
C:Tony O'Sullivan
Z:Transcribed by Dave Marshall
M:6/8
K:G
|: ~G3 .EG.D | ~G3 .EG.D | DGG BGG | dGG (3Bcd B |
~G3 .EG.D | ~G3 .EG.D | GAB deg | deg edB :|
|: deg b3 | bab deg | b3 bag | edB deg |
b3 bab | agg bgg | agg efg | deg edB :|
